src/assets/mh-icons/Arms_Rank_01.svg

<?xml version="1.0" encoding="UTF-8" standalone="no"?>
<svg
   width="100%"
   height="100%"
   viewBox="0 0 64 64"
   version="1.1"
   xml:space="preserve"
   style="fill-rule:evenodd;clip-rule:evenodd;stroke-linejoin:round;stroke-miterlimit:2;"
   id="svg407"
   sodipodi:docname="Arms_Rank_01.svg"
   inkscape:version="1.2.2 (732a01da63, 2022-12-09)"
   xmlns:inkscape="http://www.inkscape.org/namespaces/inkscape"
   xmlns:sodipodi="http://sodipodi.sourceforge.net/DTD/sodipodi-0.dtd"
   xmlns="http://www.w3.org/2000/svg"
   xmlns:svg="http://www.w3.org/2000/svg"><defs
   id="defs411">
        
    
            
            
            
        
                
            
                
            
                
            </defs><sodipodi:namedview
   id="namedview409"
   pagecolor="#505050"
   bordercolor="#eeeeee"
   borderopacity="1"
   inkscape:showpageshadow="0"
   inkscape:pageopacity="0"
   inkscape:pagecheckerboard="0"
   inkscape:deskcolor="#505050"
   showgrid="false"
   inkscape:zoom="18.34375"
   inkscape:cx="20.660988"
   inkscape:cy="32"
   inkscape:window-width="3440"
   inkscape:window-height="1377"
   inkscape:window-x="-8"
   inkscape:window-y="-8"
   inkscape:window-maximized="1"
   inkscape:current-layer="svg407" />
    <path
   id="path605"
   style="display:inline;opacity:1;fill:none;fill-opacity:0.76;stroke:#000000;stroke-width:3.3;stroke-linejoin:round;stroke-dasharray:none;stroke-opacity:1;paint-order:markers fill stroke"
   d="m 23,7 -4.230469,5 H 16 v 11 l 3,3 4,4 v 4 3 4 9 4 h -3 v 3 H 48 V 54 H 44 V 50 41 37 34 30.044922 30 24.5 21 c 0,0 -0.0045,-0.422895 -0.28125,-0.71875 L 44,20 V 17 10 H 42 L 39,7 H 38 35 32.021484 L 32,7.015625 V 7 H 29 V 7.00586 L 28.992188,7 H 26.046875 L 26,7.03125 V 7 Z" />
<g
   transform="matrix(1,0,0,1,0,-128)"
   id="g621"
   style="paint-order:fill markers stroke">
        <g
   id="g619"
   transform="matrix(1,0,0,1,0,-768)"
   style="paint-order:fill markers stroke">
            <g
   id="g609"
   transform="matrix(1,0,0,1,-128,0)"
   style="paint-order:fill markers stroke">
                <path
   d="m 147,922 4,4 v 4 l 1,1 v 1 l -1,1 v 4 l 1,1 v 7 l -1,1 v 5 h 21 v -5 l -0.5,-1 v -7 l 0.5,-1 v -4 l -1,-1 v -1 l 1,-1 v -4 l -1,-1 v -3 l 1,-1.5 -1,-1.5 v -2 l 1,-1 v -3 l -1,-1 v -5 l -4,-4 h -1 l -1.5,1 -1.5,-1 h -2.979 l -1.446,1 -1.583,-1 h -2.945 l -1.541,1 -1.506,-1 -5.5,6.5 z"
   style="display:inline;fill-opacity:1;paint-order:fill markers stroke;opacity:1;fill:#212121"
   id="path607"
   inkscape:label="path607" />
            </g>
            <g
   id="g613"
   transform="matrix(1,0,0,1,-128,0)"
   style="paint-order:fill markers stroke">
                <path
   d="m 147,908 h -3 v 11 l 3,3 z m 7,-5 h -3 v 10 h 3 z m 6,0 h -3 v 10 h 3 z m 6,0 h -3 v 10 h 3 z m 6,3 h -3 v 7 h 3 z"
   style="display:inline;fill:#888888;paint-order:fill markers stroke"
   id="path611" />
            </g>
            <g
   id="g617"
   transform="matrix(1,0,0,1,-128,0)"
   style="paint-order:fill markers stroke">
                <path
   d="m 176,950 h -28 v 3 h 28 z m -4,-13 h -21 v 9 h 21 z m -16,4 c 0,-0.552 -0.448,-1 -1,-1 h -1 c -0.552,0 -1,0.448 -1,1 v 1 c 0,0.552 0.448,1 1,1 h 1 c 0.552,0 1,-0.448 1,-1 z m 10,0 c 0,-0.552 -0.448,-1 -1,-1 h -1 c -0.552,0 -1,0.448 -1,1 v 1 c 0,0.552 0.448,1 1,1 h 1 c 0.552,0 1,-0.448 1,-1 z m -5,0 c 0,-0.552 -0.448,-1 -1,-1 h -1 c -0.552,0 -1,0.448 -1,1 v 1 c 0,0.552 0.448,1 1,1 h 1 c 0.552,0 1,-0.448 1,-1 z m 10,0 c 0,-0.552 -0.448,-1 -1,-1 h -1 c -0.552,0 -1,0.448 -1,1 v 1 c 0,0.552 0.448,1 1,1 h 1 c 0.552,0 1,-0.448 1,-1 z m 1,-11 h -21 v 3 h 21 z m 0,-13 c 0,0 0,-1 -1,-1 h -19 c -1,0 -1,1 -1,1 v 9 l 21,0.045 z m -16,3 c 0,-0.552 -0.448,-1 -1,-1 h -1 c -0.552,0 -1,0.448 -1,1 v 1 c 0,0.552 0.448,1 1,1 h 1 c 0.552,0 1,-0.448 1,-1 z m 10,0 c 0,-0.552 -0.448,-1 -1,-1 h -1 c -0.552,0 -1,0.448 -1,1 v 1 c 0,0.552 0.448,1 1,1 h 1 c 0.552,0 1,-0.448 1,-1 z m -5,0 c 0,-0.552 -0.448,-1 -1,-1 h -1 c -0.552,0 -1,0.448 -1,1 v 1 c 0,0.552 0.448,1 1,1 h 1 c 0.552,0 1,-0.448 1,-1 z m 10,0 c 0,-0.552 -0.448,-1 -1,-1 h -1 c -0.552,0 -1,0.448 -1,1 v 1 c 0,0.552 0.448,1 1,1 h 1 c 0.552,0 1,-0.448 1,-1 z"
   style="display:inline;fill:#bebebe;paint-order:fill markers stroke"
   id="path615" />
            </g>
        </g>
    </g></svg>

<?xml version="1.0" encoding="UTF-8" standalone="no"?>
<!DOCTYPE svg PUBLIC "-//W3C//DTD SVG 1.1//EN" "http://www.w3.org/Graphics/SVG/1.1/DTD/svg11.dtd">
<svg width="100%" height="100%" viewBox="0 0 64 64" version="1.1" xmlns="http://www.w3.org/2000/svg" xmlns:xlink="http://www.w3.org/1999/xlink" xml:space="preserve" xmlns:serif="http://www.serif.com/" style="fill-rule:evenodd;clip-rule:evenodd;stroke-linejoin:round;stroke-miterlimit:2;">
    <g transform="matrix(1,0,0,1,0,-128)">
        <g id="Arms_Rank_01" transform="matrix(1,0,0,1,0,-768)">
            <g id="background" transform="matrix(1,0,0,1,-128,0)">
                <path d="M147,922L151,926L151,930L152,931L152,932L151,933L151,937L152,938L152,945L151,946L151,951L172,951L172,946L171.5,945L171.5,938L172,937L172,933L171,932L171,931L172,930L172,926L171,925L171,922L172,920.5L171,919L171,917L172,916L172,913L171,912L171,907L167,903L166,903L164.5,904L163,903L160.021,903L158.575,904L156.992,903L154.047,903L152.506,904L151,903L145.5,909.5L147,922Z" style="fill-opacity:0.76;"/>
            </g>
            <g id="color_02" transform="matrix(1,0,0,1,-128,0)">
                <path d="M147,908L144,908L144,919L147,922L147,908ZM154,903L151,903L151,913L154,913L154,903ZM160,903L157,903L157,913L160,913L160,903ZM166,903L163,903L163,913L166,913L166,903ZM172,906L169,906L169,913L172,913L172,906Z" style="fill:rgb(136,136,136);"/>
            </g>
            <g id="color_01" transform="matrix(1,0,0,1,-128,0)">
                <path d="M176,950L148,950L148,953L176,953L176,950ZM172,937L151,937L151,946L172,946L172,937ZM156,941C156,940.448 155.552,940 155,940L154,940C153.448,940 153,940.448 153,941L153,942C153,942.552 153.448,943 154,943L155,943C155.552,943 156,942.552 156,942L156,941ZM166,941C166,940.448 165.552,940 165,940L164,940C163.448,940 163,940.448 163,941L163,942C163,942.552 163.448,943 164,943L165,943C165.552,943 166,942.552 166,942L166,941ZM161,941C161,940.448 160.552,940 160,940L159,940C158.448,940 158,940.448 158,941L158,942C158,942.552 158.448,943 159,943L160,943C160.552,943 161,942.552 161,942L161,941ZM171,941C171,940.448 170.552,940 170,940L169,940C168.448,940 168,940.448 168,941L168,942C168,942.552 168.448,943 169,943L170,943C170.552,943 171,942.552 171,942L171,941ZM172,930L151,930L151,933L172,933L172,930ZM172,917C172,917 172,916 171,916L152,916C151,916 151,917 151,917L151,926L172,926.045L172,917ZM156,920C156,919.448 155.552,919 155,919L154,919C153.448,919 153,919.448 153,920L153,921C153,921.552 153.448,922 154,922L155,922C155.552,922 156,921.552 156,921L156,920ZM166,920C166,919.448 165.552,919 165,919L164,919C163.448,919 163,919.448 163,920L163,921C163,921.552 163.448,922 164,922L165,922C165.552,922 166,921.552 166,921L166,920ZM161,920C161,919.448 160.552,919 160,919L159,919C158.448,919 158,919.448 158,920L158,921C158,921.552 158.448,922 159,922L160,922C160.552,922 161,921.552 161,921L161,920ZM171,920C171,919.448 170.552,919 170,919L169,919C168.448,919 168,919.448 168,920L168,921C168,921.552 168.448,922 169,922L170,922C170.552,922 171,921.552 171,921L171,920Z" style="fill:rgb(190,190,190);"/>
            </g>
        </g>
    </g>
</svg>
